rospo-icon-theme-classic-common/22x22/apps/lightworks.svg

<svg height="22" width="22" xmlns="http://www.w3.org/2000/svg"><path d="m1 20v .5c0 .554.446 1 1 1h18c .554 0 1-.446 1-1v-.5c0 .554-.446 1-1 1h-18c-.554 0-1-.446-1-1z" opacity=".2"/><path d="m6.9 1v20h13.1c.554 0 1-.446 1-1v-2.47776l-.691728-.907954.197494-14.0376797c.007793-.5539452-.328458-.6027528-.752883-.9588139l-.736409-.6177924zm-5.283789.0761719c-.0556867.0230711-.1081808.0516886-.1582032.0839844.0497941-.0322866.1027251-.0609109.1582032-.0839844zm-.1650391.0878906c-.0521923.0342817-.1007881.0739913-.1455079.1171875.0447316-.0435155.0932078-.0826869.1455079-.1171875zm-.1455079.1171875c-.0899482.086884-.1625333.1910982-.2148437.3066406.0519271-.1156348.1253806-.2196095.2148437-.3066406zm-.2148437.3066406c-.05238.115696-.082199.2424493-.086914.3769532.00471-.1342976.034987-.2613183.086914-.3769532zm-.086914.3769532c-.0004189.0119494-.0039063.0231011-.0039063.0351562v.071289c0-.043025.0035-.066034.0039063-.1064452z" fill="#4f4f4f"/><path d="m5.5 17.5h6v1h-6z" opacity=".2"/><path d="m5.5 4.5h6v1h-6z" opacity=".2"/><path d="m2 1c-.5419449 0-.9772625.4276534-.9960937.9648438-.0004086.0404109-.0039063.0634204-.0039063.1064452v17.857422.071289c0 .554.446 1 1 1h .0703125 4.9296875v-3h4.540039v-1h-4.540039v-12h4.540039v-1h-4.540039v-3h-4.9296875z" fill="#858585"/><path d="m1 2.5v-.5c0-.554.446-1 1-1h18c .554 0 1 .446 1 1v .5c0-.554-.446-1-1-1h-18c-.554 0-1 .446-1 1z" fill="#fff" opacity=".1"/><path d="m3 2.5v2h2v-2zm0 4v2h2v-2zm0 4v2h2v-2zm0 4v2h2v-2zm0 4v2h2v-2z" opacity=".2"/><path d="m3 2v2h2v-2zm0 4v2h2v-2zm0 4v2h2v-2zm0 4v2h2v-2zm0 4v2h2v-2z" fill="#fff"/><path d="m20.999738 11.425446c-2.032027 1.091373-4.051576 1.78629-5.797915 2.232114-.07239.02174-.153358.0498-.223211.06975-2.292009.654612-3.910384 2.911513-3.910384 2.911513l-.126951 1.134193c.205672.08944 2.131774.878921 4.688135.0028 2.565002-.879096 5.112477-4.338138 5.370326-4.694414z" fill-rule="evenodd"/><path d="m17.901983 14.567844-.207168 1.372749-1.016309-.718461-.04813 1.595961-1.334385-.941673-.191125 1.77174-1.445293-1.245101-.413639 1.452967-1.143958-1.325318-.682887 1.133495-.588023-1.356706-.504318 1.019797c.06261.06683.127468.124098.191125.186939.15893.12319.34528.22949.34528.22949s2.065094.957845 4.76626.03209c1.370231-.469616 2.723521-1.67039 3.737395-2.746197-.03898-.01529-.07203-.03298-.114396-.04673z" fill-rule="evenodd"/><ellipse cx="17.472" cy="8.4" opacity=".2" rx="1.371" ry="1.377"/><ellipse cx="16.843" cy="7.768" opacity=".2" rx=".337" ry=".339"/><path d="m21 10.968567c-2.032027 1.091372-4.051838 1.786289-5.798177 2.232113-.07239.02174-.153358.0498-.223211.06975-2.292009.654613-3.910384 3.011346-3.910384 3.011346l-.126951 1.134193c.205672.08944 2.131774.878921 4.688135.0028 2.565002-.879093 5.112739-4.012493 5.370588-4.368769z" fill="#3f3f3f" fill-rule="evenodd"/><path d="m18.492795 12.585214s-.02777.0041-.02791.0042c-4.96489.910437-8.475753 1.302502-8.475753 1.302502s-1.595191.514287-3.018237.211935l1.4229725 2.068845.449213-1.286953.9891055 1.422275.696141-1.467614 1.572942 1.557596.562214-1.782901 1.48296 1.422275.719159-1.941241 1.12373 1.218594.696141-1.782901 1.236033.857272.539194-1.70761z" fill-rule="evenodd" opacity=".2"/><path d="m18.838867 1.500399c-.782351.2537641-9.304739 3.1947505-12.617668 4.966797-3.4604874 1.8509725-3.3712693 2.5273025-2.9667967 3.520508.4044728.993204 1.4831237 1.671325 2.1123047 3.161133.6291775 1.489805 5.123047 1.351562 5.123047 1.351562s4.968228.0449 10.510246-2.93164v-9.06836c0-.554-.446-1-1-1zm2.161133 12s-4.325659 4.872262-8.532226 5c-.894666.01539-1.684307-.267284-2.141602-1.029297 0 0-.359405.05613-.291992.552734.344666 1.760792 3.31368 2.366434 4.040039 2.376164 1.641274-.0048 3.893393-.388061 6.925781-1.783203z" opacity=".2"/><path d="m18.492795 12.085363s-.02777.0042-.02791.0042c-4.964885.910437-8.475748 1.302502-8.475748 1.302502s-1.595191.514287-3.018237.211935l1.4229725 2.068845.449213-1.286953.9891055 1.422275.696141-1.467614 1.572942 1.557596.562214-1.782901 1.48296 1.422275.719159-1.941241 1.12373 1.218595.696141-1.782901 1.236033.857271.539194-1.70761z" fill="#fff" fill-rule="evenodd"/><path d="m17.901983 14.210796-.207168 1.37275-1.016309-.718462-.04813 1.595962-1.334385-.941673-.191125 1.77174-1.445293-1.245101-.413639 1.452967-1.143958-1.325318-.682887 1.133495-.588023-1.356706-.504318 1.019797c.06261.06683-.160835.412401-.09718.475242.15893.12319.05698.43542.05698.43542s2.930003 1.081405 5.631169.155644c1.370231-.469616 2.723521-2.246997 3.737395-3.322804-.03898-.0153-.360334-.07417-.402699-.08792z" fill="#fff" fill-rule="evenodd"/><path d="m18.838867 1c-.782351.2537641-9.304739 3.1947505-12.617668 4.966797-3.4604874 1.8509725-3.3712693 2.5273025-2.9667967 3.520508.4044728.993204 1.4831237 1.671325 2.1123047 3.161133.6291775 1.489805 5.123047 1.351562 5.123047 1.351562s4.968228.0449 10.510246-2.93164v-9.06836c0-.554-.446-1-1-1zm2.161133 12s-4.325659 4.872262-8.532226 5c-.894666.01539-1.684307-.267284-2.141602-1.029297 0 0-.359405.05613-.291992.552734.344666 1.760792 3.31368 2.366434 4.040039 2.376164 1.641274-.0048 3.893393-.388061 6.925781-1.783203z" fill="#e7464c"/><circle cx="17.5" cy="8.5" fill="#3f3f3f" r="1.5"/><circle cx="17" cy="8.5" fill="#f8fcf9" r=".5"/><path d="m18.838867 1c-.782351.2537641-9.304739 3.1947505-12.617668 4.966797-2.8279148 1.512617-3.2749776 2.2413175-3.126953 2.9990235.1557369-.612917.9144448-1.31558 3.126953-2.4990235 3.312929-1.7720465 11.835317-4.7130329 12.617668-4.966797h1.161133c.554 0 1 .446 1 1v-.5c0-.554-.446-1-1-1z" fill="#fff" opacity=".1"/></svg>

<svg xmlns="http://www.w3.org/2000/svg" width="22" height="22" version="1">
 <path style="opacity:0.2" d="m 1,20 0,0.5 c 0,0.554 0.446,1 1,1 l 18,0 c 0.554,0 1,-0.446 1,-1 L 21,20 c 0,0.554 -0.446,1 -1,1 L 2,21 C 1.446,21 1,20.554 1,20 Z"/>
 <path style="fill:#4f4f4f" d="m 6.9,1 0,20 13.1,0 c 0.554,0 1,-0.446 1,-1 L 21,17.52224 20.308272,16.614286 20.505766,2.5766063 C 20.513559,2.0226611 20.177308,1.9738535 19.752883,1.6177924 L 19.016474,1 Z M 1.616211,1.0761719 C 1.5605243,1.099243 1.5080302,1.1278605 1.4580078,1.1601563 1.5078019,1.1278697 1.5607329,1.0992454 1.616211,1.0761719 Z M 1.4511719,1.1640625 C 1.3989796,1.1983442 1.3503838,1.2380538 1.305664,1.28125 1.3503956,1.2377345 1.3988718,1.1985631 1.4511719,1.1640625 Z M 1.305664,1.28125 C 1.2157158,1.368134 1.1431307,1.4723482 1.0908203,1.5878906 1.1427474,1.4722558 1.2162009,1.3682811 1.305664,1.28125 Z M 1.0908203,1.5878906 c -0.05238,0.115696 -0.082199,0.2424493 -0.086914,0.3769532 0.00471,-0.1342976 0.034987,-0.2613183 0.086914,-0.3769532 z M 1.0039063,1.9648438 C 1.0034874,1.9767932 1,1.9879449 1,2 L 1,2.071289 C 1,2.028264 1.0035,2.005255 1.0039063,1.9648438 Z"/>
 <rect style="opacity:0.2" width="6" height="1" x="5.5" y="17.5"/>
 <rect style="opacity:0.2" width="6" height="1" x="5.5" y="4.5"/>
 <path style="fill:#858585" d="M 2,1 C 1.4580551,1 1.0227375,1.4276534 1.0039063,1.9648438 1.0034977,2.0052547 1,2.0282642 1,2.071289 L 1,19.928711 1,20 c 0,0.554 0.446,1 1,1 L 2.0703125,21 7,21 l 0,-3 4.540039,0 0,-1 L 7,17 7,5 l 4.540039,0 0,-1 L 7,4 7,1 2.0703125,1 Z"/>
 <path style="opacity:0.1;fill:#ffffff" d="M 1,2.5 1,2 C 1,1.446 1.446,1 2,1 l 18,0 c 0.554,0 1,0.446 1,1 l 0,0.5 c 0,-0.554 -0.446,-1 -1,-1 l -18,0 c -0.554,0 -1,0.446 -1,1 z"/>
 <path style="opacity:0.2" d="m 3,2.5 0,2 2,0 0,-2 z m 0,4 0,2 2,0 0,-2 z m 0,4 0,2 2,0 0,-2 z m 0,4 0,2 2,0 0,-2 z m 0,4 0,2 2,0 0,-2 z"/>
 <path style="fill:#ffffff" d="M 3,2 3,4 5,4 5,2 Z M 3,6 3,8 5,8 5,6 Z m 0,4 0,2 2,0 0,-2 z m 0,4 0,2 2,0 0,-2 z m 0,4 0,2 2,0 0,-2 z"/>
 <path style="fill-rule:evenodd" d="m 20.999738,11.425446 c -2.032027,1.091373 -4.051576,1.78629 -5.797915,2.232114 -0.07239,0.02174 -0.153358,0.0498 -0.223211,0.06975 -2.292009,0.654612 -3.910384,2.911513 -3.910384,2.911513 l -0.126951,1.134193 c 0.205672,0.08944 2.131774,0.878921 4.688135,0.0028 2.565002,-0.879096 5.112477,-4.338138 5.370326,-4.694414 z"/>
 <path style="fill-rule:evenodd" d="m 17.901983,14.567844 -0.207168,1.372749 -1.016309,-0.718461 -0.04813,1.595961 -1.334385,-0.941673 -0.191125,1.77174 -1.445293,-1.245101 -0.413639,1.452967 -1.143958,-1.325318 -0.682887,1.133495 -0.588023,-1.356706 -0.504318,1.019797 c 0.06261,0.06683 0.127468,0.124098 0.191125,0.186939 0.15893,0.12319 0.34528,0.22949 0.34528,0.22949 0,0 2.065094,0.957845 4.76626,0.03209 1.370231,-0.469616 2.723521,-1.67039 3.737395,-2.746197 -0.03898,-0.01529 -0.07203,-0.03298 -0.114396,-0.04673 z"/>
 <ellipse style="opacity:0.2" cx="17.472" cy="8.4" rx="1.371" ry="1.377"/>
 <ellipse style="opacity:0.2" cx="16.843" cy="7.768" rx=".337" ry=".339"/>
 <path style="fill:#3f3f3f;fill-rule:evenodd" d="m 21,10.968567 c -2.032027,1.091372 -4.051838,1.786289 -5.798177,2.232113 -0.07239,0.02174 -0.153358,0.0498 -0.223211,0.06975 -2.292009,0.654613 -3.910384,3.011346 -3.910384,3.011346 l -0.126951,1.134193 c 0.205672,0.08944 2.131774,0.878921 4.688135,0.0028 C 18.194414,16.539676 20.742151,13.406276 21,13.05 Z"/>
 <path style="opacity:0.2;fill-rule:evenodd" d="m 18.492795,12.585214 c 0,0 -0.02777,0.0041 -0.02791,0.0042 -4.96489,0.910437 -8.475753,1.302502 -8.475753,1.302502 0,0 -1.595191,0.514287 -3.018237,0.211935 l 1.4229725,2.068845 0.449213,-1.286953 0.9891055,1.422275 0.696141,-1.467614 1.572942,1.557596 0.562214,-1.782901 1.48296,1.422275 0.719159,-1.941241 1.12373,1.218594 0.696141,-1.782901 1.236033,0.857272 0.539194,-1.70761 z"/>
 <path style="opacity:0.2" d="M 18.838867,1.500399 C 18.056516,1.7541631 9.534128,4.6951495 6.221199,6.467196 2.7607116,8.3181685 2.8499297,8.9944985 3.2544023,9.987704 c 0.4044728,0.993204 1.4831237,1.671325 2.1123047,3.161133 0.6291775,1.489805 5.123047,1.351562 5.123047,1.351562 0,0 4.968228,0.0449 10.510246,-2.93164 l 0,-9.06836 c 0,-0.554 -0.446,-1 -1,-1 z m 2.161133,12 c 0,0 -4.325659,4.872262 -8.532226,5 -0.894666,0.01539 -1.684307,-0.267284 -2.141602,-1.029297 0,0 -0.359405,0.05613 -0.291992,0.552734 C 10.378846,19.784628 13.34786,20.39027 14.074219,20.4 15.715493,20.3952 17.967612,20.011939 21,18.616797 Z"/>
 <path style="fill:#ffffff;fill-rule:evenodd" d="m 18.492795,12.085363 c 0,0 -0.02777,0.0042 -0.02791,0.0042 C 13.5,13 9.989137,13.392065 9.989137,13.392065 c 0,0 -1.595191,0.514287 -3.018237,0.211935 l 1.4229725,2.068845 0.449213,-1.286953 0.9891055,1.422275 0.696141,-1.467614 1.572942,1.557596 0.562214,-1.782901 1.48296,1.422275 0.719159,-1.941241 1.12373,1.218595 0.696141,-1.782901 1.236033,0.857271 0.539194,-1.70761 z"/>
 <path style="fill:#ffffff;fill-rule:evenodd" d="m 17.901983,14.210796 -0.207168,1.37275 -1.016309,-0.718462 -0.04813,1.595962 -1.334385,-0.941673 -0.191125,1.77174 -1.445293,-1.245101 -0.413639,1.452967 -1.143958,-1.325318 -0.682887,1.133495 -0.588023,-1.356706 -0.504318,1.019797 c 0.06261,0.06683 -0.160835,0.412401 -0.09718,0.475242 0.15893,0.12319 0.05698,0.43542 0.05698,0.43542 0,0 2.930003,1.081405 5.631169,0.155644 1.370231,-0.469616 2.723521,-2.246997 3.737395,-3.322804 -0.03898,-0.0153 -0.360334,-0.07417 -0.402699,-0.08792 z"/>
 <path style="fill:#e7464c" d="M 18.838867,1 C 18.056516,1.2537641 9.534128,4.1947505 6.221199,5.966797 2.7607116,7.8177695 2.8499297,8.4940995 3.2544023,9.487305 3.6588751,10.480509 4.737526,11.15863 5.366707,12.648438 5.9958845,14.138243 10.489754,14 10.489754,14 c 0,0 4.968228,0.0449 10.510246,-2.93164 L 21,2 C 21,1.446 20.554,1 20,1 Z M 21,13 c 0,0 -4.325659,4.872262 -8.532226,5 -0.894666,0.01539 -1.684307,-0.267284 -2.141602,-1.029297 0,0 -0.359405,0.05613 -0.291992,0.552734 0.344666,1.760792 3.31368,2.366434 4.040039,2.376164 C 15.715493,19.894801 17.967612,19.51154 21,18.116398 Z"/>
 <circle style="fill:#3f3f3f" cx="17.5" cy="8.5" r="1.5"/>
 <circle style="fill:#f8fcf9" cx="17" cy="8.5" r=".5"/>
 <path style="opacity:0.1;fill:#ffffff" d="M 18.838867,1 C 18.056516,1.2537641 9.534128,4.1947505 6.221199,5.966797 3.3932842,7.479414 2.9462214,8.2081145 3.094246,8.9658205 3.2499829,8.3529035 4.0086908,7.6502405 6.221199,6.466797 9.534128,4.6947505 18.056516,1.7537641 18.838867,1.5 L 20,1.5 c 0.554,0 1,0.446 1,1 L 21,2 C 21,1.446 20.554,1 20,1 Z"/>
</svg>
